brandFactory_export/2.Regular/Cafe_2Regular.svg

<?xml version="1.0" encoding="UTF-8"?>
<svg width="24px" height="24px" viewBox="0 0 24 24" version="1.1" xmlns="http://www.w3.org/2000/svg" xmlns:xlink="http://www.w3.org/1999/xlink">
    <title>2.Regular/Cafe_2Regular</title>
    <g id="Symbols" stroke="none" stroke-width="1" fill="none" fill-rule="evenodd">
        <g id="2.Regular/Cafe_2Regular" fill="#5CB615" fill-rule="nonzero">
            <path d="M17.9226891,18.3462185 C19.4689076,18.2084034 22.1008403,17.4252101 22.1008403,13.6739496 C22.1008403,9.9394958 19.4823529,9.13277311 17.9226891,8.98151261 L17.9226891,18.3462185 Z M16.3966387,18.9647059 L16.3966387,7.02857143 L1.52605042,7.02857143 L1.52605042,18.9647059 C1.52605042,20.097479 1.79159664,20.9008403 2.33277311,21.4218487 C2.87058824,21.9361345 3.70084034,22.1848739 4.87058824,22.1848739 L13.0521008,22.1848739 C14.2218487,22.1848739 15.0521008,21.9361345 15.589916,21.4218487 C16.1310924,20.9042017 16.3966387,20.1008403 16.3966387,18.9647059 L16.3966387,18.9647059 Z M23.6235294,13.6739496 C23.6235294,18.9142857 19.4016807,19.707563 17.8588235,19.8218487 C17.7277311,20.9378151 17.3411765,21.8184874 16.6621849,22.4672269 C15.8218487,23.2672269 14.6420168,23.6571429 13.0487395,23.6571429 L4.87058824,23.6571429 C3.27731092,23.6571429 2.09747899,23.2672269 1.25714286,22.4672269 C0.410084034,21.6605042 0,20.5142857 0,18.9680672 L0,6.29915966 C0,5.89243697 0.342857143,5.56302521 0.76302521,5.56302521 L17.1596639,5.56302521 C17.5798319,5.56302521 17.9226891,5.89243697 17.9226891,6.29915966 L17.9226891,7.51260504 C19.5260504,7.65042017 23.6235294,8.5210084 23.6235294,13.6739496 Z M6.54453782,4.34957983 C6.54453782,4.09747899 6.44705882,3.94621849 6.26218487,3.67394958 C6.06386555,3.39159664 5.81848739,3.03865546 5.81512605,2.53109244 C5.81176471,2.01344538 6.06722689,1.67058824 6.25210084,1.41512605 C6.4302521,1.17310924 6.54789916,1.01176471 6.54453782,0.672268908 C6.54117647,0.319327731 6.83361345,0.0336134454 7.2,0.0302521008 L7.20672269,0.0302521008 C7.5697479,0.0302521008 7.86554622,0.312605042 7.86890756,0.658823529 C7.87563025,1.40840336 7.54957983,1.85546218 7.33109244,2.1512605 C7.18319328,2.34957983 7.13613445,2.42352941 7.1394958,2.5210084 C7.1394958,2.64201681 7.21680672,2.75630252 7.36134454,2.96470588 C7.57647059,3.27394958 7.87226891,3.69747899 7.86890756,4.34957983 C7.86890756,4.70252101 7.57310924,4.98490331 7.20672269,4.98490331 C6.84033613,4.98823529 6.54453782,4.70252101 6.54453782,4.34957983 L6.54453782,4.34957983 Z M9.82521008,4.40672269 C9.80504202,4.32605042 9.67058824,4.1210084 9.6,4.01344538 C9.43529412,3.76134454 9.27731092,3.52605042 9.27058824,3.24705882 C9.25714286,2.90420168 9.46218487,2.61176471 9.64033613,2.35630252 C9.70420168,2.26218487 9.81512605,2.10756303 9.83193277,2.04705882 C9.81512605,1.69411765 10.0941176,1.42857143 10.4571429,1.41176471 C10.8033613,1.42184874 11.1294118,1.69747899 11.1462185,2.05042017 C11.1663866,2.45042017 10.9277311,2.78991597 10.7361345,3.06554622 C10.7058824,3.1092437 10.6689076,3.16302521 10.6352941,3.21344538 C10.6588235,3.25042017 10.6857143,3.2907563 10.7159664,3.33445378 C10.8941176,3.60672269 11.1193277,3.94285714 11.1428571,4.31260504 C11.1663866,4.66554622 10.8941176,4.96806723 10.5277311,4.99159664 C10.5109244,4.99159664 10.497479,4.99495798 10.4806723,4.99495798 C10.1411765,4.98823529 9.85210084,4.73613445 9.82521008,4.40672269 L9.82521008,4.40672269 Z" id="Cafe_2Regular"></path>
        </g>
    </g>
</svg>

<svg width="24" height="24" viewBox="0 0 24 24" xmlns="http://www.w3.org/2000/svg"><path d="M17.923 18.346c1.546-.138 4.178-.92 4.178-4.672 0-3.735-2.619-4.541-4.178-4.692v9.364zm-1.526.619V7.029H1.527v11.936c0 1.132.265 1.936.806 2.457.538.514 1.368.763 2.538.763h8.181c1.17 0 2-.249 2.538-.763.541-.518.807-1.321.807-2.457zm7.227-5.291c0 5.24-4.222 6.034-5.765 6.148-.131 1.116-.518 1.996-1.197 2.645-.84.8-2.02 1.19-3.613 1.19H4.87c-1.594 0-2.774-.39-3.614-1.19C.41 21.661 0 20.514 0 18.968V6.3a.75.75 0 01.763-.736H17.16c.42 0 .763.33.763.736v1.214c1.603.137 5.7 1.008 5.7 6.16zM6.544 4.35c0-.253-.097-.404-.282-.676-.198-.282-.444-.635-.447-1.143-.003-.518.252-.86.437-1.116.178-.242.296-.403.293-.743A.647.647 0 017.2.03h.007a.65.65 0 01.662.629c.007.75-.32 1.196-.538 1.492-.148.199-.195.273-.192.37 0 .121.078.235.222.444.215.309.511.732.508 1.385a.647.647 0 01-.662.635.645.645 0 01-.662-.635zm3.281.057c-.02-.08-.154-.286-.225-.394-.165-.252-.323-.487-.33-.766-.013-.343.192-.635.37-.89.064-.095.175-.25.192-.31-.017-.353.262-.618.625-.635.346.01.672.285.69.638.02.4-.22.74-.41 1.016l-.102.147c.024.037.05.078.081.121.178.273.403.609.427.979a.644.644 0 01-.615.679c-.017 0-.03.003-.047.003-.34-.007-.629-.259-.656-.588z" fill="#5CB615" fill-rule="nonzero"/></svg>
